X:061
T: Shaun Buee with variations
T: Se\'an Bu\'i
N: O'Farrell's Pocket Companion v.1 (Sky ed. p.44-45)
N: "Irish" (= Yellow John)
M: 6/4
L: 1/4
R: waltz
Q: 80 % "slow"
K: D
A/G/|FDD AGF |Bcd B/A/G/F/E/D/|FDD AGF|B2 c d2 A/G/|
FDD AGF|B>c d B/A/G/F/E/D/|dfa f/e/d/c/B/A/|B2 c d2 :|
P:2
A |dfa f/e/d/c/B/A/|B/c/B/c/d/c/ B/A/G/F/E/D/|fdd f/e/d/c/B/A/|
B2cd2 e/g/|fdd f/e/d/c/B/A/|B/c/B/c/d/c/ B/A/G/F/E/D/|F/E/D/E/F/G/ AFA|
B2cd2 :|
P:3
F/E/|(3D/E/D/ A/F/D/F/ (3E/F/E/ B/G/E/G/|(3F/E/F/ d/A/F/D/ B/A/G/F/E/D/|
D/>F/A/F/D/F/ E/>G/B/G/E/>g/|f/a/b/g/e/c/ d/B/A/G/F/E/|
D/>F/A/F/D/F/ E/>G/B/G/E/G/|F/A/d/A/F/d/ B/A/G/F/E/D/|dfa f/e/d/c/B/A/|
B2 c/B//c// d2 :|
P:4
e/g/|f/d/A/d/f/d/ f/e/d/c/B/A/|B/d/F/d/B/d/ B/A/G/F/E/D/|
f/a/d/f/e/g/ f/e/d/c/B/A/|B2 c{Bc}d2 A|dfa f/e/d/c/B/A/|
B/A/B/c/d/c/ B/A/G/F/E/D/|F/E/D/E/F/G/ A/G/F/G/A/F/|B2 c {Bc} d2:|
